Adwaita++/mimetypes/16/application-x-kdenlive.svg

<svg height="16" width="16" xmlns="http://www.w3.org/2000/svg">
  <g enable-background="new" fill="#474747" transform="matrix(.08041921 0 0 .08041921 -12.18949 3.95886)">
    <path d="m245.58724-46.130481.30594 195.860151h15.36281v-195.860151z"/>
    <path d="m214.24962-10.055742v11.7515955h15.66878v-11.7515955zm-15.66881 23.503179v11.751643h31.33759v-11.751643zm-31.3376 23.503238v11.751619h62.67519v-11.751619zm-15.66884 23.503215v11.751607h78.34403v-11.751607zm15.66884 23.503199v11.751619h62.67519v-11.751619zm31.3376 23.503211v11.75165h31.33759v-11.75165z" fill-rule="evenodd"/>
    <path d="m283.01727 11.10433c-2.88511.155512-5.99175 2.69244-5.98453 5.503345l-.10774 82.992783c0 3.748192 5.51668 7.009722 8.67255 4.783022l59.45755-41.638221c3.17647-2.199215 3.16922-7.357953 0-9.566941l-59.34724-41.353726c-.79216-.551774-1.72631-.771596-2.68844-.720238z"/>
    <path d="m284.75929-49.227779h-31.33764-31.33762l15.66882 23.503203 15.6688 23.503239 15.66882-23.503239z"/>
  </g>
</svg>

<svg xmlns="http://www.w3.org/2000/svg" width="16" height="16" version="1.1">
 <title id="title9167">
  Gnome Symbolic Icon Theme
 </title>
 <g id="layer9" transform="translate(-223.0002,-215)">
  <g transform="matrix(0.08041921,0,0,0.08041921,210.81071,218.95886)" style="fill:#474747;enable-background:new">
   <path style="fill:#474747" d="m 245.58724,-46.130481 0.30594,195.860151 h 15.36281 V -46.130481 Z"/>
   <path d="M 214.24962,-10.055742 V 1.6958535 H 229.9184 V -10.055742 Z M 198.58081,13.447437 V 25.19908 H 229.9184 V 13.447437 Z m -31.3376,23.503238 V 48.702294 H 229.9184 V 36.950675 Z M 151.57437,60.45389 V 72.205497 H 229.9184 V 60.45389 Z m 15.66884,23.503199 V 95.708708 H 229.9184 V 83.957089 Z m 31.3376,23.503211 v 11.75165 H 229.9184 V 107.4603 Z" style="fill:#474747;fill-rule:evenodd"/>
   <path d="m 283.01727,11.10433 c -2.88511,0.155512 -5.99175,2.69244 -5.98453,5.503345 L 276.925,99.600458 c 0,3.748192 5.51668,7.009722 8.67255,4.783022 L 345.0551,62.745259 c 3.17647,-2.199215 3.16922,-7.357953 0,-9.566941 L 285.70786,11.824592 c -0.79216,-0.551774 -1.72631,-0.771596 -2.68844,-0.720238 z" style="fill:#474747"/>
   <path d="m 284.75929,-49.227779 h -31.33764 -31.33762 l 15.66882,23.503203 15.6688,23.503239 15.66882,-23.503239 z" style="fill:#474747"/>
  </g>
 </g>
</svg>
